icons/refresh-ccw.svg

<svg width="24" height="24" viewBox="0 0 24 24" fill="none" xmlns="http://www.w3.org/2000/svg">
<path d="M3.24999 7.5C4.79665 3.96778 7.91443 2 12.0244 2C17.2233 2 21.4966 5.94666 22 11M2 3.00005C2.64192 4.60484 2.64214 6.39512 2.00056 8.00004C3.60942 7.35799 5.40335 7.35799 7.01221 8.00004" stroke="black" stroke-width="2" stroke-linecap="round" stroke-linejoin="round"/>
<path d="M21.25 16.5C19.7033 20.0322 16.0855 22 11.9755 22C6.77666 22 2.50333 18.0533 2 13M22 21C21.3581 19.3952 21.3578 17.6049 21.9994 16C20.3906 16.642 18.5966 16.642 16.9878 16" stroke="black" stroke-width="2" stroke-linecap="round" stroke-linejoin="round"/>
</svg>

<svg xmlns="http://www.w3.org/2000/svg" width="24" height="24" viewBox="0 0 24 24" fill="none" stroke="currentColor" stroke-width="2" stroke-linecap="round" stroke-linejoin="round">
<path d="M3.25 7.5C4.797 3.968 7.914 2 12.024 2c5.2 0 9.473 3.947 9.976 9M2 3a6.73 6.73 0 0 1 0 5 6.76 6.76 0 0 1 5.012 0m14.238 8.5c-1.547 3.532-5.164 5.5-9.274 5.5-5.2 0-9.473-3.947-9.976-9m20 8a6.73 6.73 0 0 1 0-5 6.76 6.76 0 0 1-5.012 0"/>
</svg>
